X: 14119
T: Frieze Breeches, The
R: jig
M: 6/8
K: Dmajor
FED EFG|AAd cAG|AAA BAG|FAF GED|
FED EFG|Add cAG|AA/A/A GE[CA]|DD/D/D D2:|
d2 e fed|efd cAG|AAA BAG|FAF GED|
d2 e fed|efd cAG|FF/F/F GE[CA]|1 DD/D/D D2|2 DED D3:|
|:DD/D/D =c3|AdB =cAG|AB=c ded|ded =cAF|
DD/D/D =c3|AdB =cAG|FF/F/F GE[CA]|1 DD/D/D D3:|2 DD/D/D D2||
d2 e fdd|Add fdd|c2 d eAA|fed ecA|
d2 e fdd|Add fdd|faf gfe|dfe d2:|
fed ecA|ded cAG|AAA BAG|FAF GED|
fed ecA|ded cAG|FF/F/F GE[CA]|DD/D/D D2:|

